source/img/icon_dots_gold.svg

<svg xmlns="http://www.w3.org/2000/svg" viewBox="0 0 8.6 1"><path d="M5.7.5c0-.3.2-.5.5-.5s.5.2.5.5-.2.5-.5.5-.5-.2-.5-.5zM2.8.5c0-.3.3-.5.5-.5.3 0 .5.2.5.5s-.2.5-.5.5c-.2 0-.5-.2-.5-.5zM0 .5C0 .2.2 0 .5 0s.5.2.5.5-.2.5-.5.5S0 .8 0 .5z" fill="#e3b48b"/></svg>

<?xml version="1.0" encoding="utf-8"?>
<!-- Generator: Adobe Illustrator 27.1.1, SVG Export Plug-In . SVG Version: 6.00 Build 0)  -->
<svg version="1.1" id="Layer_1" xmlns="http://www.w3.org/2000/svg" xmlns:xlink="http://www.w3.org/1999/xlink" x="0px" y="0px"
	 viewBox="0 0 8.6 1" style="enable-background:new 0 0 8.6 1;" xml:space="preserve">
<style type="text/css">
	.st0{fill:#E3B48B;}
</style>
<g>
	<path class="st0" d="M5.7,0.5C5.7,0.2,5.9,0,6.2,0l0,0c0.3,0,0.5,0.2,0.5,0.5l0,0C6.7,0.8,6.5,1,6.2,1l0,0C5.9,1,5.7,0.8,5.7,0.5z
		 M2.8,0.5C2.8,0.2,3.1,0,3.3,0l0,0c0.3,0,0.5,0.2,0.5,0.5l0,0C3.8,0.8,3.6,1,3.3,1l0,0C3.1,1,2.8,0.8,2.8,0.5z M0,0.5
		C0,0.2,0.2,0,0.5,0l0,0C0.8,0,1,0.2,1,0.5l0,0C1,0.8,0.8,1,0.5,1l0,0C0.2,1,0,0.8,0,0.5z"/>
</g>
</svg>
